app/images/logo-circle.svg

<?xml version="1.0" encoding="UTF-8" standalone="no"?>
<svg width="264px" height="264px" viewBox="0 0 264 264" version="1.1" xmlns="http://www.w3.org/2000/svg" xmlns:xlink="http://www.w3.org/1999/xlink" xmlns:sketch="http://www.bohemiancoding.com/sketch/ns">
    <!-- Generator: Sketch 3.2.2 (9983) - http://www.bohemiancoding.com/sketch -->
    <title>Oval 9</title>
    <desc>Created with Sketch.</desc>
    <defs>
        <filter x="-50%" y="-50%" width="200%" height="200%" filterUnits="objectBoundingBox" id="filter-1">
            <feGaussianBlur stdDeviation="6.6796875" in="SourceGraphic" result="blur"></feGaussianBlur>
        </filter>
        <filter x="-50%" y="-50%" width="200%" height="200%" filterUnits="objectBoundingBox" id="filter-2">
            <feGaussianBlur stdDeviation="1" in="SourceGraphic" result="blur"></feGaussianBlur>
        </filter>
    </defs>
    <g id="Page-4" stroke="none" stroke-width="1" fill="none" fill-rule="evenodd" sketch:type="MSPage">
        <circle id="Oval-10" stroke="#FFFFFF" stroke-width="15" filter="url(#filter-1)" sketch:type="MSShapeGroup" cx="132" cy="128" r="290"></circle>
        <circle id="Oval-8" stroke="#3E4478" stroke-width="20" sketch:type="MSShapeGroup" cx="132" cy="132" r="300"></circle>
        <circle id="Oval-9" stroke="#BDC3F7" stroke-width="8" filter="url(#filter-2)" sketch:type="MSShapeGroup" cx="132" cy="132" r="125"></circle>
        <path d="M183.092754,106.854981 L183.092755,103.000485 L137.562206,103.000485 L137.562206,109.609253 L137.562206,161.971029 L142.237305,161.971028 L142.237305,106.854981 L183.092754,106.854981 Z M84.2231445,162 L80.0013172,162 C80.0004396,161.858205 80,161.71629 80,161.574257 C80,129.224588 102.802865,103 130.931624,103 L134.014995,103 L134.014995,162 L130.03418,162 L130.03418,106.999512 C97.3764648,111.111328 84.4169779,138.833923 84.2231445,162 Z" id="Oval-4" fill="#BDC3F7" sketch:type="MSShapeGroup"></path>
    </g>
</svg>

<svg width="264" height="264" viewBox="0 0 264 264" xmlns="http://www.w3.org/2000/svg"><title>Oval 9</title><desc>Created with Sketch.</desc><defs><filter x="-50%" y="-50%" width="200%" height="200%" filterUnits="objectBoundingBox" id="a"><feGaussianBlur stdDeviation="6.68" in="SourceGraphic" result="blur"/></filter><filter x="-50%" y="-50%" width="200%" height="200%" filterUnits="objectBoundingBox" id="b"><feGaussianBlur stdDeviation="1" in="SourceGraphic" result="blur"/></filter></defs><g fill="none" fill-rule="evenodd"><circle stroke="#fff" stroke-width="15" filter="url(#a)" cx="132" cy="128" r="290"/><circle stroke="#3E4478" stroke-width="20" cx="132" cy="132" r="300"/><circle stroke="#BDC3F7" stroke-width="8" filter="url(#b)" cx="132" cy="132" r="125"/><path d="M183.093 106.855V103h-45.53v58.97h4.674v-55.115h40.856zM84.223 162H80v-.426C80 129.224 102.803 103 130.932 103h3.083v59h-3.98v-55c-32.66 4.11-45.618 31.834-45.812 55z" fill="#BDC3F7"/></g></svg>
